icons/BackBuffer.svg

<svg width="24" height="24" viewBox="0 0 24 24" fill="none" xmlns="http://www.w3.org/2000/svg">
<path fill-rule="evenodd" clip-rule="evenodd" d="M7.54062 9.527C7.56565 9.50344 7.59874 9.49033 7.63311 9.49033C7.66749 9.49033 7.70058 9.50344 7.72562 9.527L8.28561 10.087C8.30917 10.112 8.32229 10.1451 8.32229 10.1795C8.32229 10.2139 8.30917 10.247 8.28561 10.272L6.51061 12.047L8.27562 13.822C8.29665 13.8495 8.3063 13.8841 8.30258 13.9185C8.29886 13.9529 8.28204 13.9846 8.25561 14.007L7.69561 14.567C7.67058 14.5906 7.63749 14.6037 7.60312 14.6037C7.56874 14.6037 7.53565 14.5906 7.51061 14.567L5.66562 12.717L5.10561 12.157C5.09259 12.1448 5.08221 12.1301 5.07512 12.1138C5.06802 12.0974 5.06436 12.0798 5.06436 12.062C5.06436 12.0442 5.06802 12.0266 5.07512 12.0102C5.08221 11.9939 5.09259 11.9792 5.10561 11.967L5.66562 11.407L7.54062 9.527ZM12.9106 9.407C13.1123 9.38219 13.3169 9.40078 13.5108 9.4615C13.7048 9.52223 13.8835 9.62369 14.035 9.7591C14.1865 9.8945 14.3073 10.0607 14.3893 10.2466C14.4713 10.4325 14.5127 10.6338 14.5106 10.837C14.5189 11.0533 14.4672 11.2677 14.3613 11.4565C14.2555 11.6453 14.0995 11.8012 13.9106 11.907C14.118 11.9969 14.2936 12.1469 14.4148 12.3376C14.536 12.5284 14.5973 12.7511 14.5906 12.977C14.5909 13.1897 14.5461 13.4001 14.4593 13.5942C14.3725 13.7884 14.2456 13.962 14.087 14.1037C13.9283 14.2454 13.7415 14.3519 13.5387 14.4162C13.336 14.4805 13.1219 14.5013 12.9106 14.477C12.6874 14.4968 12.4624 14.4716 12.2491 14.4028C12.0357 14.3341 11.8383 14.2232 11.6686 14.0768C11.4989 13.9304 11.3603 13.7515 11.261 13.5505C11.1617 13.3496 11.1038 13.1307 11.0906 12.907H12.0906C12.0924 13.0084 12.1148 13.1083 12.1565 13.2007C12.1983 13.2931 12.2584 13.376 12.3333 13.4444C12.4082 13.5127 12.4963 13.565 12.5921 13.5982C12.6879 13.6313 12.7895 13.6445 12.8906 13.637C12.981 13.6462 13.0724 13.6361 13.1586 13.6075C13.2449 13.5789 13.3242 13.5324 13.3912 13.471C13.4582 13.4097 13.5116 13.3348 13.5476 13.2514C13.5837 13.168 13.6018 13.0779 13.6006 12.987C13.6006 12.572 13.2806 12.322 12.8256 12.322H12.5106V11.507H12.7906C13.2056 11.507 13.5256 11.297 13.5256 10.892C13.5272 10.8089 13.5115 10.7264 13.4795 10.6496C13.4475 10.5729 13.3999 10.5037 13.3397 10.4463C13.2795 10.389 13.2081 10.3448 13.1299 10.3165C13.0517 10.2882 12.9686 10.2764 12.8856 10.282C12.7934 10.2766 12.7011 10.29 12.6143 10.3214C12.5274 10.3528 12.4479 10.4016 12.3805 10.4647C12.3132 10.5279 12.2594 10.6041 12.2224 10.6887C12.1855 10.7734 12.1661 10.8647 12.1656 10.957H11.1656C11.1952 10.5215 11.3947 10.115 11.7211 9.82506C12.0474 9.53515 12.4746 9.38502 12.9106 9.407ZM17.0006 9.412C18.1506 9.412 18.9356 10.452 18.9356 11.947C18.9356 13.442 18.1506 14.482 17.0156 14.482C15.8806 14.482 15.0656 13.442 15.0656 11.947C15.0656 10.452 15.8456 9.412 16.9956 9.412H17.0006ZM17.0006 10.322C16.3456 10.322 16.0656 11.037 16.0656 11.947C16.0656 12.857 16.3356 13.572 17.0006 13.572C17.6656 13.572 17.9356 12.857 17.9356 11.947C17.9356 11.037 17.6506 10.322 16.9956 10.322H17.0006Z" fill="black"/>
</svg>

<svg xmlns="http://www.w3.org/2000/svg" viewBox="0 0 24 24">
  <path d="M7.54 9.527a.135.135 0 01.186 0l.56.56a.135.135 0 010 .185L6.51 12.047l1.765 1.775a.135.135 0 01-.02.185l-.56.56a.135.135 0 01-.185 0l-1.845-1.85-.56-.56a.13.13 0 010-.19l.56-.56 1.875-1.88zm5.37-.12a1.426 1.426 0 011.6 1.43 1.174 1.174 0 01-.6 1.07 1.13 1.13 0 01.68 1.07 1.507 1.507 0 01-1.68 1.5 1.673 1.673 0 01-1.82-1.57h1a.746.746 0 00.8.73.644.644 0 00.71-.65c0-.415-.32-.665-.774-.665h-.315v-.815h.28c.415 0 .735-.21.735-.615a.6.6 0 00-.64-.61.68.68 0 00-.72.675h-1a1.665 1.665 0 011.745-1.55zm4.09.005c1.15 0 1.936 1.04 1.936 2.535s-.785 2.535-1.92 2.535c-1.135 0-1.95-1.04-1.95-2.535s.78-2.535 1.93-2.535H17zm0 .91c-.654 0-.934.715-.934 1.625s.27 1.625.935 1.625.935-.715.935-1.625-.285-1.625-.94-1.625H17z"/>
</svg>
